packages/gamut-icons/src/fit-shrink.svg

<?xml version="1.0" encoding="utf-8"?>
<!-- Generated by IcoMoon.io -->
<!DOCTYPE svg PUBLIC "-//W3C//DTD SVG 1.1//EN" "http://www.w3.org/Graphics/SVG/1.1/DTD/svg11.dtd">
<svg version="1.1" xmlns="http://www.w3.org/2000/svg" xmlns:xlink="http://www.w3.org/1999/xlink" width="32" height="32" viewBox="0 0 32 32">
<path fill="#444" d="M28 0h-24c-2.2 0-4 1.8-4 4v24c0 2.2 1.8 4 4 4h24c2.2 0 4-1.8 4-4v-24c0-2.2-1.8-4-4-4zM28 30h-24c-1.2 0-2-0.8-2-2v-11h7.6l-4 4c-0.4 0.4-0.4 1 0 1.4s1 0.4 1.4 0l6.4-6.4-6.4-6.4c-0.2-0.2-0.4-0.2-0.6-0.2s-0.6 0-0.8 0.2c-0.4 0.4-0.4 1 0 1.4l4 4h-7.6v-11c0-1.2 0.8-2 2-2h24c1.2 0 2 0.8 2 2v11h-7.6l4-4c0.4-0.4 0.4-1 0-1.4s-1-0.4-1.4 0l-6.4 6.4 6.4 6.4c0.2 0.2 0.4 0.2 0.8 0.2s0.6 0 0.8-0.2c0.4-0.4 0.4-1 0-1.4l-4-4h7.4v11c0 1.2-0.8 2-2 2z"></path>
</svg>

<svg xmlns="http://www.w3.org/2000/svg" viewBox="0 0 32 32">
    <path fill="#444" d="M28 0H4C1.8 0 0 1.8 0 4v24c0 2.2 1.8 4 4 4h24c2.2 0 4-1.8 4-4V4c0-2.2-1.8-4-4-4zm0 30H4c-1.2 0-2-.8-2-2V17h7.6l-4 4c-.4.4-.4 1 0 1.4s1 .4 1.4 0l6.4-6.4L7 9.6c-.2-.2-.4-.2-.6-.2s-.6 0-.8.2c-.4.4-.4 1 0 1.4l4 4H2V4c0-1.2.8-2 2-2h24c1.2 0 2 .8 2 2v11h-7.6l4-4c.4-.4.4-1 0-1.4s-1-.4-1.4 0L18.6 16l6.4 6.4c.2.2.4.2.8.2s.6 0 .8-.2c.4-.4.4-1 0-1.4l-4-4H30v11c0 1.2-.8 2-2 2z"/>
</svg>
